highlights/11.svg

<svg viewBox="0 0 100 98" fill="none" xmlns="http://www.w3.org/2000/svg" preserveAspectRatio="none">
    <path fill-rule="evenodd" clip-rule="evenodd" d="M1.65787 56.8619C1.26562 56.9884 0.891026 55.6918 0.56527 56.4832C0.879994 56.5751 1.45398 57.3782 1.65787 56.8619ZM55.02 50.3335C62.4761 48.0389 70.1073 52.789 77.4323 51.5615C70.5328 55.5999 62.5382 50.3909 55.02 50.3335ZM100 21.0464C97.471 20.568 94.9064 20.1159 92.8587 19.0271C94.0754 17.4737 96.6732 19.501 96.7175 14.8865C96.2254 13.8539 95.8175 12.5781 95.3254 11.5375C95.7001 11.199 96.1876 11.16 96.4138 10.4361C93.6786 8.82412 91.5022 7.08136 88.1841 6.87026C88.2994 6.0201 88.8292 5.20322 88.5787 4.21653C86.2249 2.15711 83.5277 1.7372 80.8389 1.40677C77.9044 1.04996 74.1698 1.08323 71.0315 0.509571C61.5585 -1.21254 51.0861 2.04238 40.9039 1.31958C35.3651 0.908842 29.7507 0.975379 24.5623 1.6718C21.0048 2.15022 18.4009 3.30557 15.4596 5.96618C15.2601 6.47903 15.169 7.30394 14.8677 7.54028C13.9635 7.59421 13.15 7.87072 12.791 9.37025L12.8863 10.4246C13.5114 10.5589 14.6947 9.29567 14.9654 10.9558C14.4266 12.5173 12.9017 11.4365 12.0971 12.2534C12.3165 14.3817 13.4669 14.0513 14.2737 14.6433C14.1717 16.8381 15.2157 15.9948 15.4596 17.2718C15.4019 17.8523 14.8831 17.6091 15.1625 18.325C16.2262 17.515 17.1572 18.8516 18.3297 18.5889C18.6091 18.886 18.6909 19.7224 19.0256 19.8865C24.9945 23.403 32.0338 21.4124 38.1444 22.9716C40.2499 23.4913 42.9317 23.4592 44.7868 23.3089C52.6421 22.5999 61.2837 22.3773 69.2692 24.2623C65.8074 24.2623 61.5518 24.6742 59.1582 24.6604C53.5905 24.6191 47.8522 25.4578 41.9122 24.9702C36.3758 24.5044 29.9902 24.3966 24.1744 23.7827C22.2504 23.5854 19.8102 23.7426 18.7265 24.377C16.621 23.3433 15.0272 24.2348 12.8863 24.6329C12.5361 26.16 12.2545 27.858 12.0928 29.8887C12.6514 29.992 13.4161 29.533 13.4803 30.9557C12.5649 30.9328 11.1019 29.9576 10.8029 32.2407C11.2637 33.3995 12.2348 33.2044 12.7841 34.1108C11.8888 33.8699 10.8626 33.7322 10.211 33.5486C9.93839 33.7896 10.4725 34.0535 10.313 34.868C9.70785 34.5697 9.49956 35.3384 9.2202 35.9006C6.11065 33.9731 2.59765 35.9121 0.0576144 35.086C0.844464 35.7973 1.5404 36.2104 2.39592 37.1971C1.87514 37.5757 1.52048 36.153 1.22119 36.8185C2.1765 37.243 2.31846 40.2374 3.48203 39.377C5.25066 44.7234 10.5988 41.27 13.4803 43.3122L13.2785 43.8515C16.1554 42.9221 19.8901 44.3333 22.9908 45.3774C24.1412 45.7676 25.697 46.1118 27.0535 46.6281C27.7429 46.8916 28.3699 47.6606 29.0396 47.9129C33.8533 49.7832 39.2925 47.7291 44.4078 49.6339C37.5506 52.1006 30.6264 50.4142 23.392 48.808C17.0908 47.3738 11.707 46.9834 5.3526 44.471C5.14872 45.2397 5.1244 46.5016 4.75422 46.823C5.32156 48.1424 5.96438 49.2669 6.13945 51.6189C8.76815 53.8099 12.1947 52.2499 14.9654 54.6359C12.7288 54.1658 10.6077 56.5061 8.61515 54.0393C6.60935 54.4298 3.26925 53.9018 1.57145 51.5956C1.95715 51.9514 2.89244 52.2382 3.26255 51.7336L2.96342 51.194C3.32463 50.7238 3.62384 51.4696 3.85437 50.9761C2.88357 50.1157 4.67219 50.3335 4.45286 49.9553C2.81706 50.7238 0.67601 49.0141 0 48.2454C0.223814 48.8882 0.600641 49.175 0.884383 49.6796L0.777953 51.2514C1.16366 51.5041 1.12813 51.6189 1.37413 51.8483C1.21463 51.63 0.939843 52.3184 1.17471 52.3413L1.47399 52.3757C1.05284 52.2844 1.47399 52.7773 1.4695 53.1677L0.873272 53.3739L1.36756 54.2114C1.04171 53.7987 0.42331 54.6019 0.769075 54.4069C1.33203 54.3033 1.75542 54.5217 1.96148 55.3131C1.49608 55.5882 1.91723 56.7244 1.65787 57.6534C1.96371 57.6534 2.20754 57.8372 2.35383 58.2504C1.85954 59.2368 0.853342 58.1814 0.456605 58.5829C0.69594 59.386 1.04619 59.8906 1.44949 60.2693C1.11261 60.774 1.37859 60.8085 1.44511 61.5776C1.17912 62.7706 0.67601 60.8658 0.443319 61.9903C1.03732 62.5183 1.31218 63.8488 1.63788 65.0307C1.383 64.721 1.15037 64.3307 0.939843 63.8951C1.35204 66.2816 2.32285 67.2334 2.62869 69.8494C2.34493 70.3774 1.95715 70.3311 1.92611 70.584C1.39852 70.79 2.25187 71.3063 2.32285 71.6622C2.43576 72.9471 2.39592 73.3375 2.51785 74.8402C1.95715 75.5859 1.22119 74.2091 0.702583 74.9092C1.89505 75.4829 2.83258 76.5611 3.51302 78.3395L3.50861 79.9112C4.12261 80.0832 4.35084 81.2535 4.6101 82.3322C5.67397 83.181 6.58934 85.2578 7.8992 85.8772C10.0049 86.8869 12.4696 86.8184 14.7657 87.5408C14.9918 87.9312 14.5685 88.3784 14.9608 88.3327C22.04 89.7095 29.5536 91.7284 37.2999 92.4631C40.2943 92.7499 43.2998 92.4631 46.3294 92.7382C48.8076 92.9676 51.5116 93.7479 54.1712 94.046C60.2397 94.7577 66.6206 96.9721 72.226 97.8326C75.2315 98.2915 77.2905 97.9584 79.3675 94.8952C79.2633 92.8874 79.9526 92.922 80.1521 91.7056C80.1521 89.8471 80.5489 85.8315 80.0499 84.6151C80.4712 84.7416 80.7015 84.3857 81.0408 84.3055C81.3046 81.7931 82.9933 81.7586 82.6212 78.4426C84.6248 78.7182 86.9786 80.198 89.1683 80.5082C90.9946 80.7716 92.9162 81.2996 94.1243 79.2345C94.3702 78.4542 93.353 77.4561 93.5256 76.8942L93.9224 76.6074C92.8587 76.3205 91.97 75.5631 91.243 74.3697L91.2384 72.511C90.2832 71.0657 89.2814 69.7346 88.6562 67.3711C89.0376 67.7614 90.0594 67.7842 90.4406 67.2908C89.8799 66.706 89.5363 65.5124 89.1484 64.457C87.9646 64.2276 87.0381 63.3214 86.1694 62.2315L86.6637 60.3612C86.3847 58.2844 85.6662 58.9728 84.8773 57.8026C84.5803 57.3899 84.4407 56.4147 84.1815 56.0127C83.9376 55.6227 83.4723 55.7259 83.1864 55.2557C82.8161 54.6475 82.7497 53.948 82.4903 53.7068C81.9209 53.1906 81.3046 53.7068 80.7061 53.5348C79.5935 53.1906 78.7291 51.332 77.7318 51.2747C80.3536 50.8386 83.1087 52.1808 85.6618 52.7773C85.9679 52.4676 85.6466 52.1234 85.8637 51.7108C88.3903 52.3184 91.1831 51.8366 93.5922 51.3661C93.8052 50.6893 93.7939 49.4273 94.0843 48.9568C94.665 48.647 95.2635 48.349 95.8687 48.0963C95.6868 46.6854 96.2608 46.295 96.5601 45.4233C95.4984 45.0102 96.2254 44.2071 95.2679 44.4366L95.7665 43.6335C95.5073 43.7941 95.4096 43.5302 95.463 42.8533C95.7576 43.0139 95.9551 43.7711 96.159 42.8189C95.8687 42.3026 95.445 42.2567 95.5648 41.7978C95.3855 41.5224 95.7665 39.5491 96.2543 38.8607L95.5627 38.1034C95.9749 37.3462 97.0323 38.2755 97.4398 37.4954C96.5844 36.8185 95.6404 36.394 94.5632 36.3136C94.7447 35.1204 94.2261 33.8355 94.7603 32.8832C95.6137 32.6423 96.6222 32.8373 97.0366 31.4491C96.4468 31.2196 95.7865 31.1622 95.2546 30.7492C95.6912 30.5083 96.1722 30.3362 96.345 29.3839C95.9352 29.4298 95.5338 29.4642 95.3499 28.9135C95.7511 29.0741 95.9152 28.6267 96.2408 28.5923C96.571 27.009 97.2361 26.2862 98.2178 26.4009L98.1205 26.1393C97.4398 25.8697 96.5866 26.0785 96.2388 24.9232C95.9352 20.6219 97.5398 22.1467 98.6124 21.9046C98.1602 21.9046 97.748 21.791 97.522 21.168C98.3443 20.9661 99.2684 21.8633 100 21.0464V21.0464ZM7.25872 19.2773L8.14311 18.7782C7.64658 18.8516 7.55799 17.8523 7.45604 16.9069C7.18782 17.0021 6.99497 18.6428 7.25872 19.2773V19.2773ZM13.8769 16.744V17.7984H14.1717C14.2028 17.11 14.1361 16.6774 13.8769 16.744" fill="#100F0D" />
</svg>

<svg viewBox="0 0 100 98" fill="none" xmlns="http://www.w3.org/2000/svg" preserveAspectRatio="none"><path fill-rule="evenodd" clip-rule="evenodd" d="M1.658 56.862c-.392.126-.767-1.17-1.093-.379.315.092.889.895 1.093.379Zm53.362-6.529c7.456-2.294 15.087 2.456 22.412 1.229-6.9 4.038-14.894-1.171-22.412-1.228ZM100 21.047c-2.529-.478-5.094-.93-7.141-2.019 1.216-1.553 3.814.474 3.859-4.14-.493-1.033-.9-2.309-1.393-3.35.375-.338.863-.377 1.089-1.1-2.735-1.613-4.912-3.356-8.23-3.567.115-.85.645-1.667.395-2.653-2.354-2.06-5.051-2.48-7.74-2.81-2.935-.357-6.67-.324-9.808-.897-9.473-1.723-19.945 1.532-30.127.81-5.539-.411-11.153-.345-16.342.352-3.557.478-6.161 1.634-9.102 4.294-.2.513-.291 1.338-.592 1.574-.905.054-1.718.33-2.077 1.83l.095 1.055c.625.134 1.809-1.13 2.08.53-.54 1.562-2.064.482-2.869 1.298.22 2.129 1.37 1.798 2.177 2.39-.102 2.195.942 1.352 1.186 2.629-.058.58-.577.337-.298 1.053 1.064-.81 1.995.527 3.168.264.28.297.36 1.133.696 1.298 5.968 3.516 13.008 1.525 19.118 3.085 2.106.52 4.788.487 6.643.337 7.855-.71 16.497-.932 24.482.953-3.462 0-7.717.412-10.11.398-5.569-.04-11.307.798-17.247.31-5.536-.466-11.922-.573-17.738-1.187-1.924-.198-4.364-.04-5.447.594-2.106-1.034-3.7-.142-5.84.256a35.896 35.896 0 0 0-.794 5.256c.558.103 1.323-.356 1.387 1.067-.915-.023-2.378-.998-2.677 1.285.46 1.159 1.432.963 1.981 1.87-.895-.241-1.921-.379-2.573-.562-.273.24.261.505.102 1.319-.605-.298-.813.47-1.093 1.033-3.11-1.928-6.622.011-9.162-.815.786.711 1.482 1.124 2.338 2.111-.52.379-.876-1.044-1.175-.379.955.425 1.097 3.42 2.261 2.559 1.769 5.346 7.117 1.893 9.998 3.935l-.202.54c2.877-.93 6.612.481 9.713 1.525 1.15.39 2.706.735 4.063 1.251.689.264 1.316 1.033 1.986 1.285 4.813 1.87 10.252-.184 15.368 1.72-6.857 2.468-13.782.781-21.016-.825-6.301-1.434-11.685-1.825-18.04-4.337-.203.769-.228 2.03-.598 2.352.568 1.32 1.21 2.444 1.385 4.796 2.63 2.19 6.056.63 8.826 3.017-2.236-.47-4.357 1.87-6.35-.597-2.006.39-5.346-.137-7.044-2.443.386.355 1.321.642 1.692.138l-.3-.54c.362-.47.66.276.891-.218-.97-.86.818-.642.599-1.02-1.636.768-3.777-.942-4.453-1.71.224.642.6.929.884 1.434L.778 51.25c.386.253.35.368.596.597-.16-.218-.434.47-.2.493l.3.035c-.421-.092 0 .401-.004.792l-.597.206.495.837c-.326-.412-.945.39-.599.196.563-.104.986.115 1.192.906-.465.275-.044 1.411-.303 2.34.306 0 .55.184.696.597-.494.987-1.5-.069-1.897.333.239.803.59 1.308.992 1.686-.336.505-.07.54-.004 1.309-.266 1.193-.769-.712-1.002.412.594.528.87 1.859 1.195 3.04-.255-.309-.488-.7-.698-1.135.412 2.387 1.383 3.338 1.689 5.954-.284.528-.672.482-.703.735-.527.206.326.722.397 1.078.113 1.285.073 1.675.195 3.178-.56.746-1.297-.63-1.815.07 1.192.573 2.13 1.651 2.81 3.43l-.004 1.571c.614.172.842 1.343 1.101 2.421 1.064.849 1.98 2.926 3.29 3.545 2.105 1.01 4.57.941 6.866 1.664.226.39-.197.837.195.792 7.079 1.377 14.593 3.395 22.339 4.13 2.994.287 6 0 9.03.275 2.478.23 5.182 1.01 7.841 1.308 6.069.712 12.45 2.926 18.055 3.787 3.005.459 5.064.125 7.142-2.938-.105-2.008.585-1.973.784-3.19 0-1.858.397-5.873-.102-7.09.421.127.651-.23.99-.31.265-2.512 1.953-2.546 1.581-5.862 2.004.275 4.358 1.755 6.547 2.065 1.827.264 3.748.792 4.956-1.273.246-.78-.771-1.779-.598-2.34l.396-.288c-1.063-.287-1.952-1.044-2.679-2.237l-.005-1.859c-.955-1.445-1.957-2.776-2.582-5.14.382.39 1.403.413 1.785-.08-.561-.585-.905-1.779-1.293-2.834-1.183-.23-2.11-1.136-2.979-2.225l.495-1.87c-.28-2.078-.998-1.39-1.787-2.56-.297-.412-.436-1.387-.695-1.79-.244-.39-.71-.286-.996-.756-.37-.608-.436-1.308-.696-1.55-.57-.515-1.185 0-1.784-.171-1.112-.344-1.977-2.203-2.974-2.26 2.622-.436 5.377.906 7.93 1.502.306-.31-.015-.654.202-1.066 2.526.607 5.32.126 7.728-.345.213-.677.202-1.939.492-2.41.581-.309 1.18-.607 1.785-.86-.182-1.41.392-1.801.691-2.673-1.062-.413-.335-1.216-1.292-.986l.498-.803c-.259.16-.356-.104-.303-.78.295.16.492.917.696-.035-.29-.516-.714-.562-.594-1.021-.18-.276.201-2.249.69-2.937l-.692-.758c.412-.757 1.47.172 1.877-.608-.856-.676-1.8-1.101-2.877-1.181.182-1.194-.337-2.478.197-3.43.854-.242 1.862-.047 2.277-1.435-.59-.23-1.25-.287-1.782-.7.436-.24.917-.413 1.09-1.365-.41.046-.811.08-.995-.47.401.16.565-.287.89-.322.331-1.583.996-2.306 1.978-2.191l-.097-.262c-.681-.27-1.534-.06-1.882-1.216-.304-4.301 1.3-2.776 2.373-3.018-.452 0-.864-.114-1.09-.737.822-.202 1.746.695 2.478-.122ZM7.259 19.277l.884-.499c-.496.074-.585-.926-.687-1.871-.268.095-.461 1.736-.197 2.37Zm6.618-2.533v1.054h.295c.03-.688-.036-1.12-.295-1.054" fill="#100F0D"/></svg>
